X:2004
T:Village Reel
P:Our Auld Guidman is noo awa'
C:Trad. (Koehler's Repository)
R:Strathspey (8x32)
B:RSCDS 20-4
Z:Anselm Lingnau <anselm@strathspey.org>
M:4/4
L:1/8
K:Bb
F|"Bb"[B2F2D2] B>c [dF]>c d>g|[fBF]>d c>B "Eb"G2-GB|\
  "Bb"F>d B>g d>b "Eb"g>e|"Dm"f<d "F7"c>f "Bb"B2-BF|
  "Bb"[B2F2D2] B>c [dF]>c d>g|[fBF]>d c>B "Eb"G2-GB|\
  "Dm"(3FBF "Cm"E<B "Bb"D>B "Cm"C>g|"Bb/F"[fdBF]<d "F7"c>f "Bb"[B2-D2-][BD]||
a|"Gm"(3[bB]ag "F"(3[aA]gf "Eb"[gG]>f "Bb"[dB]>g|[fBF]<d c>B "Eb"G2-GB|\
  "Bb/D"[bB]>f "Eb"g>e "Bb"f>d "Eb"b>g|"Bb"[fBF]<d "F7"[cA]>f "Bb"B2-Ba|
  "Gm"(3[bB]ag "F"(3[aA]gf "Eb"[gG]>f "Bb"[dB]>g|[fBF]<d c>B "Eb"G2-GB|\
  "Dm"(3FBF "Cm"(3EBE "Bb"(3DBD "Eb"C>g|"Bb/F"[fBF]<d "F7"[cE]>f "Bb"[B2-D2-][BD]|]
